X:11287
T:Mozart Waltz,2. TLY.028
M:3/4
L:1/8
Q:80
C:"Sa nout gally"
S:Wm.Tildesley,Swinton,Lancs.1860s.
R:Waltz
O:England.
A:Lancashire.
N:See notes to previous tune, although since the tme sig is different it
N:rather suggests otherwise
H:1860.
Z:Taz Tarry.
K:C
c>de>fg>a|a>gg>^f g2|b>ge>ce>g|gf d4|c>de>fg>a|a>gg>^f g2|!
c'>ge>cd>B|[E2G2c2] z2 z2:||:g3 gec|gf d4|c/2d/2c/2B/2 cegc'|bc'd'b g2|!
g3 gec|gf d4|cdefgB|[E4G4c4] z2:||:gGeGcG|gGeGcG|!
dGBGBG|cGeGcG|g2e2c2|g2e2c2|d2B2B2|[E4G4c4] z2:|]
